flaticon/emoticons/emo.svg

<svg xmlns="http://www.w3.org/2000/svg" width="32" height="32" viewBox="0 0 24 24">
    <path d="M 10.285156 11.839844 C 10.285156 12.382812 9.847656 12.820312 9.304688 12.820312 C 8.765625 12.820312 8.328125 12.382812 8.328125 11.839844 C 8.328125 11.300781 8.765625 10.863281 9.304688 10.863281 C 9.847656 10.863281 10.285156 11.300781 10.285156 11.839844 Z M 10.285156 11.839844"/>
    <path d="M 22.476562 9.703125 C 21.472656 4.699219 17.199219 1.222656 12 1.222656 C 6.800781 1.222656 2.527344 4.699219 1.523438 9.703125 C 0.640625 10.183594 0 11.226562 0 12.246094 C 0 13.300781 0.621094 14.25 1.570312 14.683594 C 2.792969 19.460938 7.046875 22.777344 12 22.777344 C 16.953125 22.777344 21.207031 19.460938 22.429688 14.683594 C 23.378906 14.25 24 13.300781 24 12.246094 C 24 11.226562 23.359375 10.183594 22.476562 9.703125 Z M 15.488281 2.851562 C 17.628906 4.40625 20.40625 8.167969 20.050781 11.1875 C 19.992188 11.679688 19.84375 12.132812 19.617188 12.542969 C 19.707031 11.882812 19.648438 11.152344 19.425781 10.363281 C 18.535156 7.199219 15.136719 3.660156 12.433594 2.222656 C 13.488281 2.265625 14.5 2.460938 15.4375 2.800781 C 15.457031 2.816406 15.464844 2.835938 15.488281 2.851562 Z M 6.816406 3.648438 C 6.890625 3.6875 6.96875 3.714844 7.054688 3.714844 C 8.808594 3.714844 15.453125 7.460938 17.238281 11.242188 C 17.550781 11.902344 17.6875 12.511719 17.652344 13.074219 C 17.488281 12.671875 17.261719 12.25 16.960938 11.808594 C 14.816406 8.644531 9.867188 5.242188 5.257812 4.84375 C 5.730469 4.390625 6.253906 3.992188 6.816406 3.648438 Z M 10.003906 2.40625 C 10.089844 2.484375 10.203125 2.535156 10.332031 2.535156 C 12.371094 2.535156 17.414062 6.824219 18.484375 10.628906 C 18.683594 11.335938 18.71875 11.96875 18.613281 12.535156 C 18.5625 11.984375 18.402344 11.414062 18.125 10.824219 C 16.476562 7.335938 11.09375 3.828125 8.199219 2.949219 C 8.773438 2.710938 9.375 2.53125 10.003906 2.40625 Z M 21.855469 13.859375 C 21.695312 13.914062 21.574219 14.046875 21.535156 14.210938 C 20.503906 18.675781 16.582031 21.796875 12 21.796875 C 7.417969 21.796875 3.496094 18.679688 2.464844 14.214844 C 2.425781 14.046875 2.304688 13.914062 2.144531 13.859375 C 1.449219 13.621094 0.980469 12.972656 0.980469 12.246094 C 0.980469 11.535156 1.5 10.75 2.140625 10.496094 C 2.296875 10.433594 2.414062 10.292969 2.441406 10.125 C 2.734375 8.472656 3.421875 7 4.394531 5.785156 C 8.914062 5.796875 14.011719 9.203125 16.148438 12.359375 C 16.847656 13.390625 17.128906 14.285156 16.917969 14.8125 C 16.914062 14.820312 16.914062 14.828125 16.914062 14.835938 C 16.910156 14.847656 16.90625 14.859375 16.902344 14.871094 C 16.894531 14.890625 16.898438 14.914062 16.894531 14.9375 C 16.890625 14.957031 16.882812 14.976562 16.882812 15 C 16.882812 15.007812 16.886719 15.015625 16.886719 15.023438 C 16.886719 15.035156 16.886719 15.046875 16.886719 15.054688 C 16.890625 15.078125 16.902344 15.101562 16.90625 15.125 C 16.914062 15.144531 16.910156 15.164062 16.917969 15.183594 C 16.921875 15.1875 16.921875 15.1875 16.921875 15.1875 C 16.921875 15.191406 16.925781 15.195312 16.929688 15.199219 C 16.929688 15.199219 16.933594 15.203125 16.933594 15.207031 C 16.9375 15.21875 16.945312 15.226562 16.949219 15.238281 C 16.953125 15.242188 16.953125 15.246094 16.953125 15.25 C 16.960938 15.261719 16.972656 15.273438 16.980469 15.28125 C 16.992188 15.300781 17.003906 15.3125 17.015625 15.328125 C 17.015625 15.328125 17.019531 15.332031 17.019531 15.332031 C 17.023438 15.335938 17.027344 15.34375 17.03125 15.347656 C 17.039062 15.355469 17.046875 15.359375 17.054688 15.367188 C 17.058594 15.367188 17.058594 15.371094 17.0625 15.375 C 17.066406 15.378906 17.074219 15.382812 17.082031 15.386719 C 17.09375 15.394531 17.105469 15.40625 17.117188 15.414062 C 17.136719 15.425781 17.15625 15.433594 17.171875 15.441406 C 17.179688 15.445312 17.183594 15.449219 17.191406 15.453125 C 17.191406 15.453125 17.195312 15.453125 17.199219 15.453125 C 17.207031 15.457031 17.214844 15.457031 17.21875 15.460938 C 17.226562 15.460938 17.234375 15.464844 17.238281 15.46875 C 17.28125 15.480469 17.324219 15.484375 17.367188 15.488281 C 17.371094 15.488281 17.371094 15.488281 17.371094 15.488281 C 17.417969 15.488281 17.460938 15.480469 17.507812 15.464844 C 17.519531 15.460938 17.527344 15.457031 17.539062 15.453125 C 17.546875 15.449219 17.550781 15.453125 17.558594 15.449219 C 17.5625 15.445312 17.566406 15.445312 17.570312 15.441406 C 17.574219 15.441406 17.578125 15.441406 17.578125 15.4375 C 19.613281 14.585938 20.804688 13.15625 21.023438 11.304688 C 21.273438 9.15625 20.226562 6.824219 18.859375 4.953125 C 20.230469 6.300781 21.195312 8.078125 21.554688 10.128906 C 21.585938 10.296875 21.699219 10.433594 21.859375 10.5 C 22.5 10.75 23.019531 11.535156 23.019531 12.246094 C 23.019531 12.972656 22.550781 13.621094 21.855469 13.859375 Z M 21.855469 13.859375"/>
    <path d="M 13.363281 16.632812 C 11.933594 16.417969 10.285156 17.421875 8.84375 19.386719 C 8.683594 19.605469 8.730469 19.914062 8.949219 20.074219 C 9.035156 20.136719 9.136719 20.167969 9.238281 20.167969 C 9.386719 20.167969 9.535156 20.097656 9.632812 19.96875 C 10.835938 18.332031 12.175781 17.445312 13.21875 17.601562 C 14.058594 17.726562 14.5 18.515625 14.722656 19.152344 C 14.808594 19.410156 15.089844 19.542969 15.34375 19.453125 C 15.601562 19.363281 15.734375 19.085938 15.644531 18.832031 C 15.203125 17.566406 14.394531 16.785156 13.363281 16.632812 Z M 13.363281 16.632812"/>
</svg>

<svg xmlns="http://www.w3.org/2000/svg" width="32" height="32" viewBox="0 0 24 24">
    <path d="M10.285 11.84a.979.979 0 1 1-1.957.004.979.979 0 0 1 1.957-.004zm0 0"/>
    <path d="M22.477 9.703C21.473 4.7 17.199 1.223 12 1.223c-5.2 0-9.473 3.476-10.477 8.48C.641 10.183 0 11.227 0 12.246c0 1.055.621 2.004 1.57 2.438A10.721 10.721 0 0 0 12 22.777c4.953 0 9.207-3.316 10.43-8.093A2.683 2.683 0 0 0 24 12.246c0-1.02-.64-2.062-1.523-2.543zm-6.989-6.851c2.14 1.554 4.918 5.316 4.563 8.335a3.684 3.684 0 0 1-.434 1.356c.09-.66.031-1.39-.191-2.18-.89-3.164-4.29-6.703-6.992-8.14 1.054.043 2.066.238 3.004.578.019.015.027.035.05.05zm-8.672.796c.075.04.153.067.239.067 1.754 0 8.398 3.746 10.183 7.527.313.66.45 1.27.414 1.832a6.848 6.848 0 0 0-.691-1.265C14.816 8.645 9.867 5.242 5.258 4.844a9.117 9.117 0 0 1 1.558-1.196zm3.188-1.242c.086.078.2.13.328.13 2.04 0 7.082 4.288 8.152 8.093.2.707.235 1.34.13 1.906a5.124 5.124 0 0 0-.489-1.71c-1.648-3.49-7.031-6.997-9.926-7.876a9.552 9.552 0 0 1 1.805-.543zM21.855 13.86a.493.493 0 0 0-.32.352A9.745 9.745 0 0 1 12 21.797a9.741 9.741 0 0 1-9.535-7.582.491.491 0 0 0-.32-.356A1.712 1.712 0 0 1 .98 12.246c0-.71.52-1.496 1.16-1.75a.488.488 0 0 0 .301-.371 9.591 9.591 0 0 1 1.954-4.34c4.52.012 9.617 3.418 11.753 6.574.7 1.032.98 1.926.77 2.454-.004.007-.004.015-.004.023l-.012.035c-.007.02-.004.043-.007.066-.004.02-.012.04-.012.063 0 .008.004.016.004.023v.032c.004.023.015.047.02.07.007.02.003.04.011.059l.004.004c0 .003.004.007.008.011 0 0 .004.004.004.008.003.012.011.02.015.031.004.004.004.008.004.012.008.012.02.023.027.031.012.02.024.031.036.047l.004.004c.003.004.007.012.011.016.008.007.016.011.024.02.004 0 .004.003.008.007.003.004.011.008.019.012.012.008.023.02.035.027.02.012.04.02.055.027l.02.012h.007c.008.004.016.004.02.008a.03.03 0 0 1 .02.008.735.735 0 0 0 .128.02h.004a.42.42 0 0 0 .137-.024l.031-.012c.008-.004.012 0 .02-.004.003-.004.007-.004.011-.008.004 0 .008 0 .008-.004 2.035-.851 3.227-2.28 3.445-4.132.25-2.149-.796-4.48-2.164-6.352a9.514 9.514 0 0 1 2.696 5.176.5.5 0 0 0 .304.371c.641.25 1.16 1.035 1.16 1.746 0 .727-.468 1.375-1.164 1.613zm0 0"/>
    <path d="M13.363 16.633c-1.43-.215-3.078.789-4.52 2.754a.492.492 0 0 0 .395.781c.149 0 .297-.07.395-.2 1.203-1.636 2.543-2.523 3.586-2.366.84.125 1.281.914 1.504 1.55.086.258.367.391.62.301a.485.485 0 0 0 .302-.621c-.442-1.266-1.25-2.047-2.282-2.2zm0 0"/>
</svg>
